X:60
T:Beth yw'r Haf i Mi? - What is Summer to Me?
M:2/4
L:1/8
Q:300
C:Trad. arr. J.T.
R:Plin
N:Dance arrangement in D major,
K:D
DA AB | AG E2 | EF GA | FE FD | DA AB|
AG E2 | EF GE | D2 D2 :||
||:AG FA | GA B2 | AG FA | GF E2 |
DA AB | AG E2 | EF GE | D2 D2 :||
